theme/dist/icons/pinterest.svg

<svg fill="none" height="24" viewBox="0 0 24 24" width="24" xmlns="http://www.w3.org/2000/svg" xmlns:xlink="http://www.w3.org/1999/xlink"><clipPath id="a"><path d="m1.5 1.5h21v21h-21z"/></clipPath><g clip-path="url(#a)"><path d="m12 1.5c-5.79879 0-10.5 4.70099-10.5 10.5 0 5.799 4.70121 10.5 10.5 10.5 5.7988 0 10.5-4.701 10.5-10.5 0-5.79901-4.7012-10.5-10.5-10.5zm1.2082 13.9876c-.9712 0-1.8847-.525-2.1975-1.1212 0 0-.5225 2.0721-.6323 2.4719-.38946 1.4136-1.53517 2.8276-1.62432 2.9434-.06209.0806-.19937.0554-.21355-.0516-.02427-.18-.31688-1.9633.02729-3.4177.17208-.7305 1.15645-4.9013 1.15645-4.9013s-.28659-.5742-.28659-1.42323c0-1.33305.77252-2.32816 1.73452-2.32816.8179 0 1.2128.61421 1.2128 1.35045 0 .82238-.5234 2.05214-.7934 3.19154-.2258.9541.478 1.7324 1.419 1.7324 1.7043 0 2.8513-2.1887 2.8513-4.78237 0-1.97088-1.3269-3.44679-3.742-3.44679-2.72777 0-4.42882 2.03469-4.42882 4.30786 0 .7833.23159 1.3365.5938 1.7638.16607.1965.1897.2756.12933.5012-.04361.1656-.14179.5639-.18347.7214-.05994.2281-.24426.3094-.45072.2254-1.25592-.5129-1.84155-1.8891-1.84155-3.4361 0-2.55502 2.15456-5.61876 6.42823-5.61876 3.4341 0 5.6944 2.48477 5.6944 5.15257.0002 3.52929-1.9619 6.16529-4.8529 6.16529z" fill="#000"/></g></svg>

<svg width="24" height="24" viewBox="0 0 24 24" fill="none" xmlns="http://www.w3.org/2000/svg"><g clip-path="url(#clip0)"><path d="M12 1.5C6.20121 1.5 1.5 6.20099 1.5 12 1.5 17.799 6.20121 22.5 12 22.5 17.7988 22.5 22.5 17.799 22.5 12 22.5 6.20099 17.7988 1.5 12 1.5zM13.2082 15.4876C12.237 15.4876 11.3235 14.9626 11.0107 14.3664 11.0107 14.3664 10.4882 16.4385 10.3784 16.8383 9.98894 18.2519 8.84323 19.6659 8.75408 19.7817 8.69199 19.8623 8.55471 19.8371 8.54053 19.7301 8.51626 19.5501 8.22365 17.7668 8.56782 16.3124 8.7399 15.5819 9.72427 11.4111 9.72427 11.4111 9.72427 11.4111 9.43768 10.8369 9.43768 9.98787 9.43768 8.65482 10.2102 7.65971 11.1722 7.65971 11.9901 7.65971 12.385 8.27392 12.385 9.01016 12.385 9.83254 11.8616 11.0623 11.5916 12.2017 11.3658 13.1558 12.0696 13.9341 13.0106 13.9341 14.7149 13.9341 15.8619 11.7454 15.8619 9.15173 15.8619 7.18085 14.535 5.70494 12.1199 5.70494 9.39213 5.70494 7.69108 7.73963 7.69108 10.0128 7.69108 10.7961 7.92267 11.3493 8.28488 11.7766 8.45095 11.9731 8.47458 12.0522 8.41421 12.2778 8.3706 12.4434 8.27242 12.8417 8.23074 12.9992 8.1708 13.2273 7.98648 13.3086 7.78002 13.2246 6.5241 12.7117 5.93847 11.3355 5.93847 9.7885 5.93847 7.23348 8.09303 4.16974 12.3667 4.16974 15.8008 4.16974 18.0611 6.65451 18.0611 9.32231 18.0613 12.8516 16.0992 15.4876 13.2082 15.4876z" fill="#000"/></g><defs><clipPath id="clip0"><path d="M1.5 1.5h21v21H1.5z" fill="#fff"/></clipPath></defs></svg>
